src/assets/duotone/HeartSearch.svg

<svg width="24" height="24" viewBox="0 0 24 24"  xmlns="http://www.w3.org/2000/svg">
<path opacity="0.4" d="M16.44 3.09961C14.63 3.09961 13.01 3.97959 12 5.32959C10.99 3.97959 9.37 3.09961 7.56 3.09961C4.49 3.09961 2 5.59961 2 8.68961C2 9.87961 2.19 10.9796 2.52 11.9996C4.1 16.9996 8.97 19.9896 11.38 20.8096C11.72 20.9296 12.28 20.9296 12.62 20.8096C15.03 19.9896 19.9 16.9996 21.48 11.9996C21.81 10.9796 22 9.87961 22 8.68961C22 5.59961 19.51 3.09961 16.44 3.09961Z" />
<path d="M21.77 20.6797L21.01 19.9198C21.41 19.3198 21.64 18.5997 21.64 17.8297C21.64 15.7197 19.93 14.0098 17.82 14.0098C15.71 14.0098 14 15.7197 14 17.8297C14 19.9397 15.71 21.6497 17.82 21.6497C18.59 21.6497 19.31 21.4197 19.91 21.0197L20.67 21.7798C20.82 21.9298 21.02 22.0098 21.22 22.0098C21.42 22.0098 21.62 21.9298 21.77 21.7798C22.08 21.4698 22.08 20.9797 21.77 20.6797Z" />
</svg>

<?xml version="1.0" encoding="UTF-8"?>
<svg width="24" height="24" viewBox="0 0 24 24" xmlns="http://www.w3.org/2000/svg">
 <path d="m16.44 3.0996c-1.81 0-3.43 0.87998-4.44 2.23-1.01-1.35-2.63-2.23-4.44-2.23-3.07 0-5.56 2.5-5.56 5.59 0 1.19 0.19 2.29 0.52 3.31 1.58 5 6.45 7.99 8.86 8.81 0.34 0.12 0.9 0.12 1.24 0 2.41-0.82 7.28-3.81 8.86-8.81 0.33-1.02 0.52-2.12 0.52-3.31 0-3.09-2.49-5.59-5.56-5.59z" opacity=".4"/>
 <path d="m21.77 20.68-0.76-0.7599c0.4-0.6 0.63-1.3201 0.63-2.0901 0-2.11-1.71-3.8199-3.82-3.8199s-3.82 1.7099-3.82 3.8199 1.71 3.82 3.82 3.82c0.77 0 1.49-0.23 2.09-0.63l0.76 0.7601c0.15 0.15 0.35 0.23 0.55 0.23s0.4-0.08 0.55-0.23c0.31-0.31 0.31-0.8001 0-1.1001z"/>
</svg>
